flag-variant-remove.svg

<svg fill="currentColor" viewBox="0 0 24 24"><path d="M6 3c.6 0 1 .4 1 1v.9c1.1-.5 2.5-.9 4-.9 3 0 3 2 5 2 3 0 4-2 4-2v8s-1 2-4 2-3-2-5-2c-3 0-4 2-4 2v7H5V4c0-.6.4-1 1-1m15.1 12.5L19 17.6l-2.1-2.1-1.4 1.4 2.1 2.1-2.1 2.1 1.4 1.4 2.1-2.1 2.1 2.1 1.4-1.4-2.1-2.1 2.1-2.1z"/></svg>

<svg  viewBox="0 0 24 24" fill="currentColor"><path  d="M6 3C6.6 3 7 3.4 7 4V4.9C8.1 4.4 9.5 4 11 4C14 4 14 6 16 6C19 6 20 4 20 4V12C20 12 19 14 16 14S13 12 11 12C8 12 7 14 7 14V21H5V4C5 3.4 5.4 3 6 3M21.1 15.5L19 17.6L16.9 15.5L15.5 16.9L17.6 19L15.5 21.1L16.9 22.5L19 20.4L21.1 22.5L22.5 21.1L20.4 19L22.5 16.9L21.1 15.5Z"/></svg>
